resources/svg/facebook.svg

<svg width="19" height="19" viewBox="0 0 19 19" fill="none" xmlns="http://www.w3.org/2000/svg">
<g id="ri:facebook-fill">
<path id="Vector" d="M10.8895 10.644H12.7961L13.5587 7.59354H10.8895V6.06829C10.8895 5.28278 10.8895 4.54303 12.4148 4.54303H13.5587V1.98061C13.3101 1.94782 12.3713 1.87384 11.3799 1.87384C9.30937 1.87384 7.83903 3.13751 7.83903 5.45818V7.59354H5.55115V10.644H7.83903V17.1264H10.8895V10.644Z" fill="white"/>
</g>
</svg>

<svg xmlns="http://www.w3.org/2000/svg" fill="none" viewBox="0 0 19 19">
  <path fill="currentColor" d="M10.89 10.644h1.906l.763-3.05h-2.67V6.068c0-.785 0-1.525 1.526-1.525h1.144V1.981a21.48 21.48 0 0 0-2.18-.107c-2.07 0-3.54 1.264-3.54 3.584v2.136H5.551v3.05H7.84v6.482h3.05v-6.482Z"/>
</svg>
